pdf-box.svg

<svg fill="currentColor" viewBox="0 0 24 24"><path d="M12 10.5h1v3h-1zm-5 1h1v-1H7zM20 6v12a2 2 0 0 1-2 2H6a2 2 0 0 1-2-2V6a2 2 0 0 1 2-2h12a2 2 0 0 1 2 2M9.5 10.5A1.5 1.5 0 0 0 8 9H5.5v6H7v-2h1a1.5 1.5 0 0 0 1.5-1.5zm5 0A1.5 1.5 0 0 0 13 9h-2.5v6H13a1.5 1.5 0 0 0 1.5-1.5zm4-1.5h-3v6H17v-2h1.5v-1.5H17v-1h1.5z"/></svg>

<svg  viewBox="0 0 24 24" fill="currentColor"><path  d="M12,10.5H13V13.5H12V10.5M7,11.5H8V10.5H7V11.5M20,6V18A2,2 0 0,1 18,20H6A2,2 0 0,1 4,18V6A2,2 0 0,1 6,4H18A2,2 0 0,1 20,6M9.5,10.5A1.5,1.5 0 0,0 8,9H5.5V15H7V13H8A1.5,1.5 0 0,0 9.5,11.5V10.5M14.5,10.5A1.5,1.5 0 0,0 13,9H10.5V15H13A1.5,1.5 0 0,0 14.5,13.5V10.5M18.5,9H15.5V15H17V13H18.5V11.5H17V10.5H18.5V9Z"/></svg>
